X: 40455
T: Tom Sullivan's
R: polka
M: 2/4
K: Dmajor
|:A|E/F/G A>B|=cA- AG|Ad dc|d>A de|
f/e/d ee/d/|cA AA/B/|c/B/A GE|D2- D:|
|:d/e/|fd ee/d/|cA Ad/e/|f/g/f/d/ e/d/c|d2 a>g|
f2 ed|cA- A>B|cA G/F/E|D2- D:|

